resources/haticons/SVG/themoviedatabase.svg

<!-- Generated by IcoMoon.io -->
<svg version="1.1" xmlns="http://www.w3.org/2000/svg" width="24" height="24" viewBox="0 0 24 24">
<title>themoviedatabase</title>
<path fill="#01d277" d="M19.491 21.899c2.106 0 3.531-1.424 3.531-3.531v-14.837c0-2.106-1.424-3.531-3.531-3.531h-14.982c-2.106 0-3.531 1.424-3.531 3.531v20.469l1.809-2.101v-18.368c0.001-0.949 0.77-1.718 1.719-1.719h14.982c0.949 0.002 1.718 0.77 1.719 1.719v14.837c-0.001 0.949-0.77 1.718-1.719 1.719h-12.568l-1.81 1.812-0.011-0.014zM8.787 11.466h-1.697v5.698h1.697c3.793 0 3.793-5.698 0-5.698zM8.787 16.025h-0.551v-3.419h0.551c2.215 0 2.215 3.418 0 3.419zM8.456 10.389h1.139v-4.559h1.418v-1.131h-3.976v1.131h1.419zM14.063 7.201l-1.971-2.502h-0.366v5.785h1.156v-3.18l1.182 1.531 1.183-1.531-0.008 3.18h1.156v-5.785h-0.36zM15.983 14.315c0.358-0.247 0.51-0.689 0.526-1.124 0.023-1.004-0.606-1.729-1.617-1.729h-2.255v5.706h2.255c0.93-0.008 1.68-0.763 1.681-1.694v-0.028c0-0.466-0.231-0.878-0.585-1.127zM13.779 12.601h1.013c0.327 0 0.526 0.255 0.526 0.573 0.001 0.012 0.002 0.027 0.002 0.041 0 0.292-0.236 0.53-0.527 0.533h-1.013zM14.792 16.028h-1.013v-1.139h1.027c0.309 0 0.559 0.25 0.559 0.559v0.014c0 0.313-0.253 0.566-0.566 0.566v0z"></path>
</svg>

<svg xmlns="http://www.w3.org/2000/svg" width="24" height="24"><path fill="#01d277" d="M19.491 21.899c2.106 0 3.531-1.424 3.531-3.531V3.531C23.022 1.425 21.598 0 19.491 0H4.509C2.403 0 .978 1.424.978 3.531V24l1.809-2.101V3.531a1.72 1.72 0 0 1 1.719-1.719h14.982c.949.002 1.718.77 1.719 1.719v14.837a1.72 1.72 0 0 1-1.719 1.719H6.92l-1.81 1.812-.011-.014zM8.787 11.466H7.09v5.698h1.697c3.793 0 3.793-5.698 0-5.698zm0 4.559h-.551v-3.419h.551c2.215 0 2.215 3.418 0 3.419zm-.331-5.636h1.139V5.83h1.418V4.699H7.037V5.83h1.419zm5.607-3.188l-1.971-2.502h-.366v5.785h1.156v-3.18l1.182 1.531 1.183-1.531-.008 3.18h1.156V4.699h-.36zm1.92 7.114c.358-.247.51-.689.526-1.124.023-1.004-.606-1.729-1.617-1.729h-2.255v5.706h2.255a1.695 1.695 0 0 0 1.681-1.694v-.028c0-.466-.231-.878-.585-1.127zm-2.204-1.714h1.013c.327 0 .526.255.526.573a.534.534 0 0 1-.525.574H13.78zm1.013 3.427h-1.013v-1.139h1.027c.309 0 .559.25.559.559v.014a.565.565 0 0 1-.566.566z"/></svg>
